brandFactory_export/3.Masa/Documento_Archivo PPT_3Masa.svg

<?xml version="1.0" encoding="UTF-8"?>
<svg width="24px" height="24px" viewBox="0 0 24 24" version="1.1" xmlns="http://www.w3.org/2000/svg" xmlns:xlink="http://www.w3.org/1999/xlink">
    <title>3.Masa/Documento_Archivo PPT_3Masa</title>
    <g id="Symbols" stroke="none" stroke-width="1" fill="none" fill-rule="evenodd">
        <g id="3.Masa/Documento_Archivo-PPT_3Masa" fill="#5CB615" fill-rule="nonzero">
            <path d="M16.2420168,0.0302521008 C16.5210084,0.0302521008 16.7831933,0.134453782 16.9781513,0.329411765 L23.3344538,6.48067227 C23.4722689,6.61176471 23.5495798,6.77310924 23.6,6.94453782 C23.6369748,7.03193277 23.6571429,7.12941176 23.6571429,7.2302521 L23.6571429,21.9966387 C23.6571429,22.897479 22.8840336,23.6571429 21.9663866,23.6571429 L7.34789916,23.6571429 C6.45042017,23.6571429 5.65714286,22.8806723 5.65714286,21.9966387 L5.69747899,18.6689076 L2.93445378,18.6689076 C1.33445378,18.6689076 0.0302521011,17.3613445 0.0302521011,15.7579832 L0.0302521011,10.8470588 C0.0302521011,9.24369748 1.33445378,7.93613445 2.93445378,7.93613445 L5.65378151,7.93613445 L5.65378151,1.6907563 C5.65378151,0.820168067 6.45714286,0.0302521008 7.34453782,0.0302521008 L16.2420168,0.0302521008 Z M14.7529412,9.39831933 L2.93781513,9.39831933 C2.13781513,9.39831933 1.48907563,10.0504202 1.48907563,10.8504202 L1.48907563,15.7613445 C1.48907563,16.5613445 2.13781513,17.2134454 2.93781513,17.2134454 L14.7529412,17.2134454 C15.5529412,17.2134454 16.2016807,16.5613445 16.2016807,15.7613445 L16.2016807,10.8504202 C16.2016807,10.0504202 15.5529412,9.39831933 14.7529412,9.39831933 Z M4.54453782,11.2 C5.25378151,11.2 5.70084034,11.297479 5.99327731,11.5697479 C6.23865546,11.794958 6.35630252,12.1445378 6.35630252,12.6285714 C6.35630252,13.112605 6.24537815,13.4756303 6.02016807,13.7277311 C5.75462185,14.0268908 5.34453782,14.1647059 4.74957983,14.1647059 L4.02352941,14.1647059 L4.02352941,15.7243697 L2.99159664,15.7243697 L2.99159664,11.2 L4.54453782,11.2 Z M8.64201681,11.2 C9.3512605,11.2 9.79831933,11.297479 10.0907563,11.5697479 C10.3361345,11.794958 10.4537815,12.1445378 10.4537815,12.6285714 C10.4537815,13.112605 10.3428571,13.4756303 10.1176471,13.7277311 C9.85210084,14.0268908 9.44201681,14.1647059 8.84705882,14.1647059 L8.1210084,14.1647059 L8.1210084,15.7243697 L7.08907563,15.7243697 L7.08907563,11.2 L8.64201681,11.2 Z M14.6689076,11.2 L14.5882353,11.9462185 L13.2201681,11.9462185 L13.2201681,15.7243697 L12.1882353,15.7243697 L12.1882353,11.9462185 L10.7865546,11.9462185 L10.7865546,11.2 L14.6689076,11.2 Z M4.50420168,11.9495798 L4.02016807,11.9495798 L4.02016807,13.3915966 L4.53109244,13.3915966 L4.53109244,13.3882353 C4.8605042,13.3882353 5.00168067,13.3411765 5.13277311,13.2168067 C5.25042017,13.0991597 5.31092437,12.907563 5.31092437,12.6420168 C5.31092437,12.3966387 5.25714286,12.2184874 5.1394958,12.107563 C5.01512605,11.9966387 4.82352941,11.9495798 4.50420168,11.9495798 Z M8.60168067,11.9495798 L8.11764706,11.9495798 L8.11764706,13.3915966 L8.62857143,13.3915966 L8.62857143,13.3882353 C8.95798319,13.3882353 9.09915966,13.3411765 9.2302521,13.2168067 C9.34789916,13.0991597 9.40840336,12.907563 9.40840336,12.6420168 C9.40840336,12.3966387 9.35462185,12.2184874 9.23697479,12.107563 C9.11260504,11.9966387 8.9210084,11.9495798 8.60168067,11.9495798 Z M16.6487395,2.03361345 L16.6487395,4.1512605 C16.6487395,4.93781513 16.907563,5.60672269 17.394958,6.08067227 C17.892437,6.56134454 18.5915966,6.81344538 19.4252101,6.81344538 L21.5832521,6.8132521 L16.6487395,2.03361345 Z" id="Documento_Archivo-PPT_3Masa"></path>
        </g>
    </g>
</svg>

<svg width="24" height="24" viewBox="0 0 24 24" xmlns="http://www.w3.org/2000/svg"><path d="M16.242.03c.279 0 .541.104.736.3l6.356 6.15c.138.132.216.293.266.465a.735.735 0 01.057.285v14.767c0 .9-.773 1.66-1.69 1.66H7.346c-.897 0-1.69-.776-1.69-1.66l.04-3.328H2.934A2.913 2.913 0 01.03 15.758v-4.91a2.913 2.913 0 012.904-2.912h2.72V1.691c0-.87.803-1.66 1.69-1.66h8.898zm-1.49 9.368H2.939c-.8 0-1.449.652-1.449 1.452v4.911c0 .8.649 1.452 1.449 1.452h11.815c.8 0 1.449-.652 1.449-1.452v-4.91c0-.8-.65-1.453-1.45-1.453zM4.546 11.2c.709 0 1.156.097 1.448.37.246.225.363.575.363 1.059s-.11.847-.336 1.099c-.265.299-.675.437-1.27.437h-.726v1.56H2.992V11.2h1.553zm4.097 0c.71 0 1.156.097 1.449.37.245.225.363.575.363 1.059s-.111.847-.336 1.099c-.266.299-.676.437-1.27.437H8.12v1.56H7.089V11.2h1.553zm6.027 0l-.08.746H13.22v3.778h-1.032v-3.778h-1.401V11.2h3.882zm-10.165.75H4.02v1.442h.511v-.004c.33 0 .47-.047.602-.171.117-.118.178-.31.178-.575 0-.245-.054-.424-.172-.534-.124-.111-.315-.158-.635-.158zm4.098 0h-.484v1.442h.51v-.004c.33 0 .471-.047.602-.171.118-.118.178-.31.178-.575 0-.245-.053-.424-.171-.534-.124-.111-.316-.158-.635-.158zm8.047-9.916V4.15c0 .787.259 1.456.746 1.93.497.48 1.197.732 2.03.732h2.158l-4.934-4.78z" fill="#5CB615" fill-rule="nonzero"/></svg>
